src/pos-icons/checkbox-blank-off-outline.svg

<svg height="24" viewBox="0 0 24 24" width="24" xmlns="http://www.w3.org/2000/svg"><path d="m22.11 21.46-19.72-19.73-1.28 1.27 1.89 1.9v14.1c0 1.11.9 2 2 2h14.1l1.74 1.73zm-17.11-2.46v-12.11l12.11 12.11zm3.2-14-2-2h12.8c1.1 0 2 .89 2 2v12.8l-2-2v-10.8z"/></svg>

<?xml version="1.0" encoding="UTF-8"?><!DOCTYPE svg PUBLIC "-//W3C//DTD SVG 1.1//EN" "http://www.w3.org/Graphics/SVG/1.1/DTD/svg11.dtd"><svg xmlns="http://www.w3.org/2000/svg" xmlns:xlink="http://www.w3.org/1999/xlink" version="1.1" id="mdi-checkbox-blank-off-outline" width="24" height="24" viewBox="0 0 24 24"><path d="M22.11 21.46L2.39 1.73L1.11 3L3 4.9V19C3 20.11 3.9 21 5 21H19.1L20.84 22.73L22.11 21.46M5 19V6.89L17.11 19H5M8.2 5L6.2 3H19C20.1 3 21 3.89 21 5V17.8L19 15.8V5H8.2Z" /></svg>
